X:1457
L:1/4
M:4/4
K:D
 !0!D !1!E !3!F !4!G | !1!A !3!B !1!c !2!d | c B A G | F E D E || D4 |] !2!d !4!e !1!f !2!g | 
 !4!a g f e || !2!d4 |] !0!D !1!E !3!F !4!G | !1!A !3!B !1!c !2!d | !4!e !1!f !2!g !4!a | g f e d | 
 c B A G | F E D E || D4 |]

